X: 24
T:The Cuckoo's Nest
M:C|
L:1/8
Q:1/2=88
K:D
B2 |A>dd>c d>ef>d|e>dc>B A2 A>B|c>BA>B c>de>d|c>AG>F G2
A>G|F>DF>A d>fe>d|c>AG>F G2 A>G|F2 F>D C>DE>G|F2 D2  D2:|
B2 |A>FD>F A>FD>F|A>GF>E D2 E>F|G>EC>E G>EC>E|G>FE>D C2
D>E|F>EF>D d>fe>d|c>AG>F G2 A>G|F2 F>D C>DE>G|F2 D2  D2:|

A tune doesn't have to be very long to have an unmistakable mode.
This is probably the most-played tune in present-day Scotland:

